X: 181
T: No_40_Cow_Creek_Hunting_Dance_Song_(g).krn
N: Derived from No_40_Cow_Creek_Hunting_Dance_Song_(g).krn
%%abc-version 2.0
%%abcx-abcm2ps-target-version 5.9.1 (29 Sep 2008)
%%abc-creator hum2abc beta
%%abcx-conversion-date 2019/03/15 08:38:45
%%humdrum-veritas 3823440917
%%humdrum-veritas-data 1029289521
%%linebreak <none>
%%barnumbers 0
L: 1/8
M: 2/4
K: E clef=bass
[K:clef=bass][M:2/4]E,2B,B, | 
B,4 ]|:  
G,2B,2 | 
B,A, G,E, | 
A,2G,2 ||  
[M:3/4]E,E,E,4 ||  
[M:2/4]E,2E,2 | 
B,2G,G, | 
A,2G,E, | 
A,2G,E, | 
G,2E,E, | 
E,4 | 
B,,2B,,B,, | 
B,,4 | 
E,4 | 
[M:3/4]E,2E,E,B,2 | 
B,6 :|]  



